public/topics/12.svg

<svg width="250" height="250" viewBox="0 0 250 250" fill="none" xmlns="http://www.w3.org/2000/svg">
<rect width="250" height="250" rx="30" fill="#FF00FF"/>
<path d="M88.6 89.8C87.2667 115.933 86.6 136.733 86.6 152.2C86.6 160.2 86.8 167.8 87.2 175C88.2667 175.8 90.3333 176.2 93.4 176.2L98 176C99.8667 175.733 101.6 175.6 103.2 175.6C106.667 175.6 109.333 176.2 111.2 177.4C113.2 178.6 114.2 180.933 114.2 184.4C114.2 187.733 113.2 190.333 111.2 192.2C109.333 194.067 105.4 195 99.4 195C94.3333 195 88.2 194.6 81 193.8C79.2667 193.667 77.6 193.533 76 193.4C74.4 193.267 72.9333 193.2 71.6 193.2C64.2667 193.333 58.8 193.6 55.2 194C51.6 194.4 47.5333 194.6 43 194.6C38.8667 194.6 36.8 191.467 36.8 185.2C36.8 179.2 40.6667 176.2 48.4 176.2C49.6 176.2 51.5333 176.333 54.2 176.6C56.4667 177 58.8667 177.2 61.4 177.2C62.8667 177.2 64.0667 177.133 65 177C65.1333 168.067 65.6 155.067 66.4 138C67.2 118 67.6 103.2 67.6 93.6C66.9333 93.7333 64.6 94.6667 60.6 96.4C54.4667 99.4667 49.9333 101 47 101C45.4 101 43.9333 100.2 42.6 98.6C41.2667 96.8667 40.6 94.8667 40.6 92.6C40.6 90.3333 42 88.1333 44.8 86C47.6 83.8667 52.1333 81.0667 58.4 77.6C61.8667 75.8667 65.2 73.9333 68.4 71.8C69.2 71.2667 70.3333 70.7333 71.8 70.2C73.4 69.6667 74.6 69.4 75.4 69.4C78.8667 69.4 82 70.1333 84.8 71.6C87.7333 72.9333 89.2 74.7333 89.2 77L88.6 89.8ZM156.973 174.2C161.507 174.467 164.507 174.6 165.973 174.6C170.507 174.6 174.507 174.533 177.973 174.4C181.573 174.267 184.64 174.133 187.173 174C193.707 173.6 199.573 173.4 204.773 173.4C209.84 173.4 213.573 174.733 215.973 177.4C218.373 180.067 219.573 183.6 219.573 188C219.573 190.133 218.173 191.867 215.373 193.2C212.573 194.4 209.707 195 206.773 195C204.24 195 198.973 194.733 190.973 194.2C181.373 193.4 173.84 193 168.373 193C165.44 193 161.973 193.2 157.973 193.6C156.373 193.733 154.44 193.867 152.173 194C149.907 194.133 147.373 194.2 144.573 194.2C139.24 194.2 135.173 193.467 132.373 192C129.573 190.533 128.173 187.867 128.173 184C128.173 180.667 129.507 177.267 132.173 173.8C134.84 170.333 138.573 166.2 143.373 161.4L148.173 156.6C150.307 154.333 154.24 150.467 159.973 145C169.44 136.467 176.773 128.933 181.973 122.4C187.307 115.867 189.973 109.4 189.973 103C189.973 98.8667 187.973 95.5333 183.973 93C180.107 90.3333 175.64 89 170.573 89C162.84 89 157.24 90.7333 153.773 94.2C150.44 97.5333 148.773 102.4 148.773 108.8C148.773 110.4 147.84 111.867 145.973 113.2C144.24 114.4 142.04 115 139.373 115C135.64 115 133.04 113.667 131.573 111C130.107 108.333 129.373 105.067 129.373 101.2C129.373 95.0667 131.24 89.6667 134.973 85C138.707 80.2 143.773 76.4667 150.173 73.8C156.707 71.1333 163.907 69.8 171.773 69.8C177.373 69.8 183.173 71.2 189.173 74C195.307 76.6667 200.373 80.3333 204.373 85C208.507 89.5333 210.573 94.5333 210.573 100C210.573 108.267 208.507 116.133 204.373 123.6C200.24 131.067 195.373 137.733 189.773 143.6C184.307 149.333 177.173 156.133 168.373 164C164.107 167.6 160.307 171 156.973 174.2Z" fill="white"/>
</svg>

<svg xmlns="http://www.w3.org/2000/svg" width="250" height="250" fill="none" viewBox="0 0 250 250"><rect width="250" height="250" fill="#f0f" rx="30"/><path fill="#fff" d="M88.6 89.8q-2 39.2-2 62.4 0 12 .6 22.8 1.6 1.2 6.2 1.2l4.6-.2q2.8-.4 5.2-.4 5.2 0 8 1.8 3 1.8 3 7 0 5-3 7.8-2.8 2.8-11.8 2.8-7.6 0-18.4-1.2a789 789 0 0 1-5-.4 54 54 0 0 0-4.4-.2q-11 .2-16.4.8t-12.2.6q-6.2 0-6.2-9.4 0-9 11.6-9 1.8 0 5.8.4 3.4.6 7.2.6 2.2 0 3.6-.2.2-13.4 1.4-39 1.2-30 1.2-44.4-1 .2-7 2.8Q51.4 101 47 101q-2.4 0-4.4-2.4-2-2.6-2-6t4.2-6.6 13.6-8.4a93 93 0 0 0 10-5.8q1.2-.8 3.4-1.6 2.4-.8 3.6-.8 5.2 0 9.4 2.2 4.4 2 4.4 5.4zm68.373 84.4q6.801.4 9 .4 6.801 0 12-.2 5.4-.2 9.2-.4 9.8-.6 17.6-.6 7.6 0 11.2 4t3.6 10.6q0 3.2-4.2 5.2-4.2 1.8-8.6 1.8-3.8 0-15.8-.8-14.4-1.2-22.6-1.2-4.4 0-10.4.6-2.4.2-5.8.4t-7.6.2q-8 0-12.2-2.2t-4.2-8q0-5 4-10.2t11.2-12.4l4.8-4.8q3.2-3.4 11.8-11.6 14.2-12.8 22-22.6 8-9.8 8-19.4 0-6.2-6-10-5.8-4-13.4-4-11.6 0-16.8 5.2-5 5-5 14.6 0 2.4-2.8 4.4-2.6 1.8-6.6 1.8-5.6 0-7.8-4t-2.2-9.8q0-9.2 5.6-16.2 5.6-7.2 15.2-11.2 9.801-4 21.6-4 8.4 0 17.4 4.2 9.2 4 15.2 11 6.2 6.8 6.2 15 0 12.4-6.2 23.6t-14.6 20q-8.2 8.6-21.4 20.4-6.399 5.4-11.4 10.2"/></svg>
